img/logo-colors.svg

<svg width="193" height="58" viewBox="0 0 193 58" fill="none" xmlns="http://www.w3.org/2000/svg">
<g clip-path="url(#clip0_1502_1918)">
<path d="M108.181 56.0274C108.211 56.7111 109.005 56.9741 109.641 56.9741C110.253 56.9515 111.01 56.7412 111.033 55.9974C111.033 55.171 110.253 55.156 109.558 55.0658C108.627 54.9681 107.689 54.7277 107.689 53.706C107.689 52.6842 108.65 52.2259 109.558 52.2259C110.435 52.2034 111.434 52.6316 111.479 53.6233H110.904C110.844 52.9772 110.155 52.7744 109.573 52.7744C109.013 52.7969 108.309 53.0298 108.309 53.6985C108.309 54.4497 109.051 54.4873 109.671 54.5624C110.692 54.6826 111.638 54.863 111.638 55.9899C111.638 57.1168 110.586 57.4774 109.656 57.4925C108.703 57.515 107.628 57.0642 107.598 56.0199H108.196L108.181 56.0274Z" fill="#1D1D1B"/>
<path d="M115.814 57.4924C114.376 57.4924 113.227 56.4932 113.227 54.8704C113.227 53.2476 114.392 52.2334 115.829 52.2334C117.266 52.2334 118.424 53.2551 118.424 54.8704C118.424 56.4857 117.365 57.4924 115.814 57.4924ZM115.814 56.9289C116.941 56.9289 117.811 56.095 117.811 54.8629C117.811 53.6308 116.956 52.7743 115.821 52.7743C114.687 52.7743 113.839 53.6083 113.839 54.8629C113.839 56.1175 114.694 56.9289 115.814 56.9289Z" fill="#1D1D1B"/>
<path d="M123.212 55.2688H120.973V57.4174H120.36V52.3237H123.409V52.8571H120.973V54.7278H123.212V55.2688Z" fill="#1D1D1B"/>
<path d="M124.726 52.8646V52.3162H128.485V52.8646H126.904V57.4174H126.314V52.8646H124.733H124.726Z" fill="#1D1D1B"/>
<path d="M133.191 52.4138L134.537 56.3731H134.552L135.112 54.1944C135.309 53.5483 135.49 52.9472 135.695 52.3162H136.33V52.3988L134.757 57.4474H134.333L133.047 53.706L131.776 57.4474H131.345L129.749 52.4138V52.3162H130.399L130.989 54.2019L131.572 56.3731H131.579L132.888 52.4138H133.191Z" fill="#1D1D1B"/>
<path d="M138.471 56.1551L137.874 57.4173H137.23V57.3422L139.621 52.301H139.893L142.261 57.3422V57.4173H141.626L141.028 56.1551H138.464H138.471ZM138.675 55.6292H140.831L139.757 53.2552L138.675 55.6292Z" fill="#1D1D1B"/>
<path d="M147.927 57.3271V57.4098H147.284L145.862 55.5391H144.523V57.4098H143.903V52.301H145.953C147.005 52.301 147.7 53.0223 147.7 53.9388C147.7 54.7277 147.194 55.2761 146.475 55.4564L147.927 57.3196V57.3271ZM145.953 55.0357C146.604 55.0357 147.11 54.6 147.11 53.9388C147.11 53.2777 146.619 52.842 145.953 52.842H144.508V55.0282H145.953V55.0357Z" fill="#1D1D1B"/>
<path d="M152.694 52.8496H150.326V54.5175H152.618V55.0509H150.326V56.854H152.777V57.4174H149.713V52.3237H152.694V52.8571V52.8496Z" fill="#1D1D1B"/>
<path d="M157.8 56.0274C157.838 56.7111 158.632 56.9741 159.26 56.9741C159.88 56.9515 160.637 56.7412 160.652 55.9974C160.652 55.171 159.88 55.156 159.184 55.0658C158.254 54.9681 157.316 54.7277 157.316 53.706C157.316 52.6842 158.276 52.2259 159.177 52.2259C160.062 52.2034 161.06 52.6316 161.098 53.6233H160.523C160.47 52.9772 159.774 52.7744 159.184 52.7744C158.617 52.7969 157.913 53.0298 157.913 53.6985C157.913 54.4497 158.655 54.4873 159.283 54.5624C160.296 54.6826 161.249 54.863 161.249 55.9899C161.249 57.1168 160.19 57.4774 159.26 57.4925C158.307 57.515 157.24 57.0642 157.202 56.0199H157.792L157.8 56.0274Z" fill="#1D1D1B"/>
<path d="M166.152 52.8496H163.784V54.5175H166.069V55.0509H163.784V56.854H166.227V57.4174H163.164V52.3237H166.144V52.8571L166.152 52.8496Z" fill="#1D1D1B"/>
<path d="M172.249 57.3271V57.4098H171.606L170.184 55.5391H168.845V57.4098H168.225V52.301H170.275C171.326 52.301 172.022 53.0223 172.022 53.9388C172.022 54.7277 171.515 55.2761 170.797 55.4564L172.249 57.3196V57.3271ZM170.275 55.0357C170.925 55.0357 171.432 54.6 171.432 53.9388C171.432 53.2777 170.94 52.842 170.275 52.842H168.83V55.0282H170.275V55.0357Z" fill="#1D1D1B"/>
<path d="M176.387 54.4648L177.265 52.3162H177.923V52.4063L175.789 57.4399H175.532L173.384 52.4063V52.3162H174.034L174.927 54.4648L175.668 56.3731H175.676L176.395 54.4648H176.387Z" fill="#1D1D1B"/>
<path d="M181.63 56.9291V57.4174H179.239V56.9291H180.124V52.8046H179.3V52.3237H181.569V52.8046H180.745V56.9291H181.637H181.63Z" fill="#1D1D1B"/>
<path d="M185.738 52.2561C186.729 52.2561 187.712 52.7895 188.023 53.8488H187.425C187.107 53.1576 186.479 52.8196 185.738 52.8196C184.558 52.797 183.763 53.676 183.763 54.8706C183.763 56.0651 184.55 56.9141 185.73 56.9141C186.517 56.9141 187.183 56.5234 187.455 55.7871H188.053C187.758 56.9291 186.767 57.4775 185.738 57.4775C184.308 57.4775 183.143 56.4708 183.143 54.8706C183.143 53.2703 184.301 52.2336 185.738 52.2636V52.2561Z" fill="#1D1D1B"/>
<path d="M192.917 52.8496H190.549V54.5175H192.834V55.0509H190.549V56.854H193V57.4174H189.929V52.3237H192.917V52.8571V52.8496Z" fill="#1D1D1B"/>
<path d="M149.062 42.6397C141.55 42.6397 135.438 36.5693 135.438 29.109C135.438 21.6488 141.55 15.5784 149.062 15.5784C156.574 15.5784 162.687 21.6488 162.687 29.109C162.687 36.5693 156.574 42.6397 149.062 42.6397ZM149.062 17.8097C142.791 17.8097 137.684 22.8809 137.684 29.109C137.684 35.3372 142.791 40.4083 149.062 40.4083C155.334 40.4083 160.44 35.3372 160.44 29.109C160.44 22.8809 155.334 17.8097 149.062 17.8097Z" fill="#1D1D1B"/>
<path d="M190.897 21.7089C190.277 21.7089 189.77 21.2055 189.77 20.5895C189.77 18.9367 188.416 17.5919 186.751 17.5919C186.131 17.5919 185.624 17.0885 185.624 16.4724C185.624 15.8564 186.123 15.353 186.751 15.353C189.656 15.353 192.017 17.697 192.017 20.5895C192.017 21.2055 191.51 21.7089 190.889 21.7089H190.897Z" fill="#E84E0F"/>
<path d="M171.666 42.0985C168.761 42.0985 166.394 39.7545 166.394 36.8621C166.394 36.246 166.9 35.7427 167.521 35.7427C168.141 35.7427 168.648 36.246 168.648 36.8621C168.648 38.5149 170.002 39.8597 171.666 39.8597C172.287 39.8597 172.794 40.3631 172.794 40.9791C172.794 41.5952 172.294 42.0985 171.666 42.0985Z" fill="#1D1D1B"/>
<path d="M185.541 42.0988H176.44C175.82 42.0988 175.313 41.6029 175.313 40.9794C175.313 40.3558 175.82 39.8599 176.44 39.8599H185.541C188.325 39.8599 190.587 37.6136 190.587 34.8489C190.587 32.0841 188.325 29.8378 185.541 29.8378H172.877C168.86 29.8378 165.584 26.5847 165.584 22.5954C165.584 18.6061 168.852 15.353 172.877 15.353H182.25C182.87 15.353 183.377 15.8564 183.377 16.4724C183.377 17.0885 182.87 17.5919 182.25 17.5919H172.877C170.1 17.5919 167.831 19.8382 167.831 22.6029C167.831 25.3677 170.093 27.614 172.877 27.614H185.541C189.565 27.614 192.833 30.8671 192.833 34.8564C192.833 38.8457 189.558 42.0988 185.541 42.0988Z" fill="#1D1D1B"/>
<path d="M109.345 42.3691C108.725 42.3691 108.218 41.8657 108.218 41.2497V16.7503C108.218 16.1342 108.725 15.6309 109.345 15.6309C109.966 15.6309 110.473 16.1342 110.473 16.7503V41.2572C110.473 41.8732 109.966 42.3766 109.345 42.3766V42.3691Z" fill="#1D1D1B"/>
<path d="M128.258 17.8697H114.671C114.051 17.8697 113.544 17.3663 113.544 16.7503C113.544 16.1342 114.051 15.6309 114.671 15.6309H128.258C128.878 15.6309 129.385 16.1342 129.385 16.7503C129.385 17.3663 128.886 17.8697 128.258 17.8697Z" fill="#1D1D1B"/>
<path d="M126.321 21.2054C126.321 20.5893 125.814 20.0859 125.194 20.0859C124.574 20.0859 124.067 20.5893 124.067 21.2054V31.6632V41.2496C124.067 41.8657 124.574 42.3691 125.194 42.3691C125.814 42.3691 126.321 41.8657 126.321 41.2496V31.6632V21.2054Z" fill="#1D1D1B"/>
<path d="M76.0593 42.3692C75.439 42.3692 74.9321 41.8658 74.9321 41.2498V21.2205C74.9321 20.6044 75.439 20.1011 76.0593 20.1011C76.6797 20.1011 77.1865 20.6044 77.1865 21.2205V41.2498C77.1865 41.8658 76.6872 42.3692 76.0593 42.3692Z" fill="#1D1D1B"/>
<path d="M91.2122 30.1156H94.8888C98.9058 30.1156 102.182 26.8626 102.182 22.8732C102.182 18.8839 98.9058 15.6309 94.8888 15.6309H76.0593C75.439 15.6309 74.9321 16.1342 74.9321 16.7503C74.9321 17.3663 75.439 17.8697 76.0593 17.8697H94.8888C97.6727 17.8697 99.9347 20.116 99.9347 22.8808C99.9347 25.6455 97.6727 27.8918 94.8888 27.8918H80.5605C79.9402 27.8918 79.4333 28.3952 79.4333 29.0112C79.4333 29.6273 79.9402 30.1307 80.5605 30.1307H88.0273L100.26 42.2714C100.479 42.4893 100.767 42.602 101.054 42.602C101.342 42.602 101.629 42.4893 101.849 42.2714C102.287 41.8357 102.287 41.1295 101.849 40.6937L91.2122 30.1307V30.1156Z" fill="#1D1D1B"/>
<path d="M28.6943 0.5C12.8455 0.5 0 13.2643 0 29.0038C0 37.6285 3.86575 45.3517 9.96319 50.5807V47.9061C9.96319 45.5621 11.8772 43.6538 14.245 43.6538C16.6129 43.6538 18.5269 45.5546 18.5269 47.9061V55.6518C21.689 56.8464 25.116 57.5075 28.7019 57.5075C31.3723 57.5075 34.2168 56.9741 35.1019 56.7863L33.9293 54.7653L30.3586 48.6198L29.9425 47.8986L24.5184 38.5751L24.5486 38.5601C25.8271 39.1386 27.2494 39.4692 28.7397 39.4692C30.6839 39.4692 32.4995 38.9132 34.0428 37.9666C36.9402 36.1936 38.8844 33.0231 38.8844 29.4019C38.8844 23.8349 34.3454 19.3347 28.7473 19.3347C23.1491 19.3347 18.6025 23.8424 18.6025 29.4019C18.6025 29.4771 18.6176 29.5522 18.6176 29.6273H18.5193V34.5257C18.5193 36.8697 16.6053 38.778 14.2375 38.778C11.8696 38.778 9.95563 36.8772 9.95563 34.5257V29.6273H10.0464C10.0464 29.5522 10.0464 29.4771 10.0464 29.4019C10.0464 19.1469 18.4134 10.8377 28.7397 10.8377C39.066 10.8377 47.433 19.1469 47.433 29.4019C47.433 36.171 43.7715 42.0761 38.3171 45.3217L43.1436 53.6309C51.6618 48.6874 57.3962 39.5217 57.3962 29.0113C57.3962 13.2643 44.5507 0.5 28.6943 0.5Z" fill="url(#paint0_linear_1502_1918)"/>
</g>
<defs>
<linearGradient id="paint0_linear_1502_1918" x1="8.41236" y1="8.84678" x2="48.7103" y2="49.4248" gradientUnits="userSpaceOnUse">
<stop stop-color="#FFEE00"/>
<stop offset="0.32" stop-color="#FBBA00"/>
<stop offset="0.4" stop-color="#F58E04"/>
<stop offset="0.5" stop-color="#EF6508"/>
<stop offset="0.59" stop-color="#EB420C"/>
<stop offset="0.69" stop-color="#E7280F"/>
<stop offset="0.79" stop-color="#E51511"/>
<stop offset="0.89" stop-color="#E30912"/>
<stop offset="1" stop-color="#E30613"/>
</linearGradient>
<clipPath id="clip0_1502_1918">
<rect width="193" height="57" fill="white" transform="translate(0 0.5)"/>
</clipPath>
</defs>
</svg>

<svg width="193" height="58" fill="none" xmlns="http://www.w3.org/2000/svg"><g clip-path="url(#clip0_1502_1918)"><path d="M108.181 56.027c.03.684.824.947 1.46.947.612-.022 1.369-.233 1.392-.977 0-.826-.78-.841-1.475-.931-.931-.098-1.869-.338-1.869-1.36s.961-1.48 1.869-1.48c.877-.023 1.876.406 1.921 1.397h-.575c-.06-.646-.749-.849-1.331-.849-.56.023-1.264.256-1.264.925 0 .75.742.788 1.362.863 1.021.12 1.967.301 1.967 1.428s-1.052 1.487-1.982 1.502c-.953.023-2.028-.428-2.058-1.472h.598l-.015.007zm7.633 1.465c-1.438 0-2.587-.999-2.587-2.622 0-1.622 1.165-2.637 2.602-2.637 1.437 0 2.595 1.022 2.595 2.637 0 1.616-1.059 2.622-2.61 2.622zm0-.563c1.127 0 1.997-.834 1.997-2.066 0-1.232-.855-2.089-1.99-2.089-1.134 0-1.982.834-1.982 2.089s.855 2.066 1.975 2.066zm7.398-1.66h-2.239v2.148h-.613v-5.093h3.049v.533h-2.436v1.87h2.239v.542zm1.514-2.404v-.549h3.759v.549h-1.581v4.552h-.59v-4.552h-1.588zm8.465-.451l1.346 3.96h.015l.56-2.18c.197-.646.378-1.247.583-1.878h.635v.083l-1.573 5.048h-.424l-1.286-3.741-1.271 3.741h-.431l-1.596-5.033v-.098h.65l.59 1.886.583 2.171h.007l1.309-3.96h.303zm5.28 3.741l-.597 1.262h-.644v-.075l2.391-5.041h.272l2.368 5.041v.075h-.635l-.598-1.262h-2.564.007zm.204-.526h2.156l-1.074-2.374-1.082 2.374zm9.252 1.698v.083h-.643l-1.422-1.87h-1.339v1.87h-.62V52.3h2.05c1.052 0 1.747.721 1.747 1.638 0 .789-.506 1.337-1.225 1.517l1.452 1.864v.007zm-1.974-2.291c.651 0 1.157-.436 1.157-1.097s-.491-1.097-1.157-1.097h-1.445v2.186h1.445v.008zm6.741-2.186h-2.368v1.667h2.292v.534h-2.292v1.803h2.451v.563h-3.064v-5.093h2.981v.533-.007zm5.106 3.177c.038.684.832.947 1.46.947.62-.022 1.377-.233 1.392-.977 0-.826-.772-.841-1.468-.931-.93-.098-1.868-.338-1.868-1.36s.96-1.48 1.861-1.48c.885-.023 1.883.406 1.921 1.397h-.575c-.053-.646-.749-.849-1.339-.849-.567.023-1.271.256-1.271.925 0 .75.742.788 1.37.863 1.013.12 1.966.301 1.966 1.428s-1.059 1.487-1.989 1.502c-.953.023-2.02-.428-2.058-1.472h.59l.008.007zm8.352-3.177h-2.368v1.667h2.285v.534h-2.285v1.803h2.443v.563h-3.063v-5.093h2.98v.533l.008-.007zm6.097 4.477v.083h-.643l-1.422-1.87h-1.339v1.87h-.62V52.3h2.05c1.051 0 1.747.721 1.747 1.638 0 .789-.507 1.337-1.225 1.517l1.452 1.864v.007zm-1.974-2.291c.65 0 1.157-.436 1.157-1.097s-.492-1.097-1.157-1.097h-1.445v2.186h1.445v.008zm6.112-.571l.878-2.149h.658v.09l-2.134 5.034h-.257l-2.148-5.034v-.09h.65l.893 2.149.741 1.908h.008l.719-1.908h-.008zm5.243 2.465v.487h-2.391v-.488h.885v-4.124h-.824v-.481h2.269v.48h-.824v4.125h.892-.007zm4.108-4.674c.991 0 1.974.533 2.285 1.593h-.598c-.318-.691-.946-1.03-1.687-1.03-1.18-.022-1.975.857-1.975 2.052 0 1.194.787 2.043 1.967 2.043.787 0 1.453-.39 1.725-1.127h.598c-.295 1.142-1.286 1.69-2.315 1.69-1.43 0-2.595-1.006-2.595-2.606 0-1.6 1.158-2.637 2.595-2.607v-.008zm7.179.594h-2.368v1.667h2.285v.534h-2.285v1.803H193v.563h-3.071v-5.093h2.988v.533-.007zm-43.855-10.21c-7.512 0-13.624-6.07-13.624-13.531 0-7.46 6.112-13.53 13.624-13.53 7.512 0 13.625 6.07 13.625 13.53 0 7.46-6.113 13.53-13.625 13.53zm0-24.83c-6.271 0-11.378 5.07-11.378 11.299 0 6.228 5.107 11.3 11.378 11.3 6.272 0 11.378-5.072 11.378-11.3 0-6.228-5.106-11.3-11.378-11.3z" fill="#1D1D1B"/><path d="M190.897 21.709c-.62 0-1.127-.503-1.127-1.12 0-1.652-1.354-2.997-3.019-2.997-.62 0-1.127-.503-1.127-1.12a1.12 1.12 0 011.127-1.119c2.905 0 5.266 2.344 5.266 5.237 0 .616-.507 1.119-1.128 1.119h.008z" fill="#E84E0F"/><path d="M171.666 42.099c-2.905 0-5.272-2.344-5.272-5.237a1.127 1.127 0 012.254 0c0 1.653 1.354 2.998 3.018 2.998.621 0 1.128.503 1.128 1.12 0 .615-.5 1.119-1.128 1.119zm13.875 0h-9.101c-.62 0-1.127-.496-1.127-1.12 0-.623.507-1.12 1.127-1.12h9.101c2.784 0 5.046-2.245 5.046-5.01 0-2.765-2.262-5.011-5.046-5.011h-12.664c-4.017 0-7.293-3.253-7.293-7.243 0-3.989 3.268-7.242 7.293-7.242h9.373c.62 0 1.127.503 1.127 1.12 0 .616-.507 1.119-1.127 1.119h-9.373c-2.777 0-5.046 2.246-5.046 5.01 0 2.766 2.262 5.012 5.046 5.012h12.664c4.024 0 7.292 3.253 7.292 7.242 0 3.99-3.275 7.243-7.292 7.243zm-76.196.271c-.62 0-1.127-.504-1.127-1.12v-24.5a1.127 1.127 0 012.255 0v24.507c0 .616-.507 1.12-1.128 1.12v-.008zm18.913-24.5h-13.587c-.62 0-1.127-.504-1.127-1.12 0-.616.507-1.12 1.127-1.12h13.587c.62 0 1.127.504 1.127 1.12 0 .616-.499 1.12-1.127 1.12zm-1.937 3.335a1.126 1.126 0 00-2.254 0V41.25a1.126 1.126 0 002.254 0V21.205zM76.06 42.37a1.127 1.127 0 01-1.128-1.12V21.22c0-.616.507-1.119 1.127-1.119s1.127.503 1.127 1.12V41.25c0 .616-.499 1.12-1.127 1.12z" fill="#1D1D1B"/><path d="M91.212 30.116h3.677c4.017 0 7.293-3.253 7.293-7.243s-3.276-7.242-7.293-7.242h-18.83c-.62 0-1.127.503-1.127 1.12 0 .615.507 1.119 1.127 1.119h18.83c2.784 0 5.046 2.246 5.046 5.01 0 2.765-2.262 5.012-5.046 5.012H80.56c-.62 0-1.128.503-1.128 1.12 0 .615.507 1.119 1.127 1.119h7.467l12.233 12.14c.219.218.507.331.794.331.288 0 .575-.113.795-.33a1.111 1.111 0 000-1.578L91.212 30.13v-.015z" fill="#1D1D1B"/><path d="M28.694.5C12.846.5 0 13.264 0 29.004c0 8.625 3.866 16.348 9.963 21.577v-2.675c0-2.344 1.914-4.252 4.282-4.252 2.368 0 4.282 1.9 4.282 4.252v7.746a28.726 28.726 0 0010.175 1.855c2.67 0 5.515-.533 6.4-.72l-1.173-2.022-3.57-6.145-.417-.721-5.424-9.324.03-.015a10.116 10.116 0 009.494-.593c2.898-1.773 4.842-4.944 4.842-8.565 0-5.567-4.539-10.067-10.137-10.067-5.598 0-10.145 4.507-10.145 10.067 0 .075.016.15.016.225h-.099v4.899c0 2.344-1.914 4.252-4.281 4.252-2.368 0-4.282-1.9-4.282-4.252v-4.899h.09v-.225c0-10.255 8.367-18.564 18.694-18.564 10.326 0 18.693 8.309 18.693 18.564 0 6.769-3.661 12.674-9.116 15.92l4.827 8.309c8.518-4.944 14.252-14.11 14.252-24.62C57.396 13.264 44.551.5 28.694.5z" fill="url(#paint0_linear_1502_1918)"/></g><defs><linearGradient id="paint0_linear_1502_1918" x1="8.412" y1="8.847" x2="48.71" y2="49.425" gradientUnits="userSpaceOnUse"><stop stop-color="#FE0"/><stop offset=".32" stop-color="#FBBA00"/><stop offset=".4" stop-color="#F58E04"/><stop offset=".5" stop-color="#EF6508"/><stop offset=".59" stop-color="#EB420C"/><stop offset=".69" stop-color="#E7280F"/><stop offset=".79" stop-color="#E51511"/><stop offset=".89" stop-color="#E30912"/><stop offset="1" stop-color="#E30613"/></linearGradient><clipPath id="clip0_1502_1918"><path fill="#fff" transform="translate(0 .5)" d="M0 0h193v57H0z"/></clipPath></defs></svg>
